symbols/web/money_off/materialsymbolsoutlined/money_off_wght700_40px.svg

<svg xmlns="http://www.w3.org/2000/svg" height="40" width="40"><path d="M23.667 14.208q-.584-1.208-1.542-1.896-.958-.687-2.292-.687-.875 0-1.562.313-.688.312-1.229.812l-3.084-3.083q.792-.875 1.792-1.396 1-.521 2.167-.729V3.917h3.833v3.625q1.625.041 3.438 1.521 1.812 1.479 2.604 3.479Zm9.625 24.084-7.417-7.417q-.833.708-1.917 1.104-1.083.396-2.208.521v3.583h-3.833v-3.666q-2.167-.25-4.063-2.105Q11.958 28.458 11.25 26l4.083-1.5q.584 1.917 1.771 2.896 1.188.979 3.021.979.667 0 1.354-.167.688-.166 1.104-.541L1.75 6.75l2.292-2.375 31.583 31.583Z"/></svg>

<svg xmlns="http://www.w3.org/2000/svg" height="40" width="40"><path d="M23.667 14.208Q23.083 13 22.125 12.312Q21.167 11.625 19.833 11.625Q18.958 11.625 18.271 11.938Q17.583 12.25 17.042 12.75L13.958 9.667Q14.75 8.792 15.75 8.271Q16.75 7.75 17.917 7.542V3.917H21.75V7.542Q23.375 7.583 25.188 9.063Q27 10.542 27.792 12.542ZM33.292 38.292 25.875 30.875Q25.042 31.583 23.958 31.979Q22.875 32.375 21.75 32.5V36.083H17.917V32.417Q15.75 32.167 13.854 30.312Q11.958 28.458 11.25 26L15.333 24.5Q15.917 26.417 17.104 27.396Q18.292 28.375 20.125 28.375Q20.792 28.375 21.479 28.208Q22.167 28.042 22.583 27.667L1.75 6.75L4.042 4.375L35.625 35.958Z"/></svg>
